symbols/web/grade/materialsymbolsrounded/grade_wght600grad200_24px.svg

<svg xmlns="http://www.w3.org/2000/svg" height="24" width="24"><path d="M12 12.925Zm-5.55 9.65q-.475.325-.925.012-.45-.312-.3-.862l2.1-6.875-5.575-4q-.45-.325-.275-.85.175-.525.725-.525h6.85l2.2-7.3q.1-.25.3-.388.2-.137.45-.137t.438.137q.187.138.287.388l2.225 7.3h6.85q.55 0 .725.525.175.525-.275.85l-5.575 4 2.125 6.875q.15.55-.3.862-.45.313-.925-.012l-5.55-4.25Zm3.125-5.725L12 14.975l2.425 1.875-.9-3.075 2.3-1.65H12.95L12 9l-.95 3.125H8.175l2.3 1.65Z"/></svg>

<svg xmlns="http://www.w3.org/2000/svg" height="24" width="24"><path d="M12 12.925ZM6.45 22.575Q5.975 22.9 5.525 22.587Q5.075 22.275 5.225 21.725L7.325 14.85L1.75 10.85Q1.3 10.525 1.475 10Q1.65 9.475 2.2 9.475H9.05L11.25 2.175Q11.35 1.925 11.55 1.787Q11.75 1.65 12 1.65Q12.25 1.65 12.438 1.787Q12.625 1.925 12.725 2.175L14.95 9.475H21.8Q22.35 9.475 22.525 10Q22.7 10.525 22.25 10.85L16.675 14.85L18.8 21.725Q18.95 22.275 18.5 22.587Q18.05 22.9 17.575 22.575L12.025 18.325ZM9.575 16.85 12 14.975 14.425 16.85 13.525 13.775 15.825 12.125H12.95L12 9L11.05 12.125H8.175L10.475 13.775Z"/></svg>
